X: 1
T: Dave's Place
M: 3/4
L: 1/8
R: mazurka
K: Dmaj
F |: 
B2 BF (3Bcd | cA F2 FA | B2 BF Be | c3 c dc |
B2 BG (3Bcd | cB A2 de | fe dc BA |1 B2 BA FA :| B2 Bc de ||
|: f3 d fa | ec A2 de | f3 d fa | e4 de |
fd Be cA | dB Gd Be | F2 B2 A2 |1 B2 Bc de :|2 B2 BA FA ||
